casedrop/img/bonus/icons/gift-bell.svg

<svg width="60" height="34" viewBox="0 0 60 34" fill="none" xmlns="http://www.w3.org/2000/svg">
<path d="M40.3529 10.9792H38.3695C38.9362 10.2992 39.2904 9.44919 39.2904 8.50002C39.2904 6.34669 37.5479 4.60419 35.3945 4.60419C33.0145 4.60419 30.9179 5.86502 29.7279 7.73502C28.5379 5.86502 26.4412 4.60419 24.0612 4.60419C21.9079 4.60419 20.1654 6.34669 20.1654 8.50002C20.1654 9.44919 20.5195 10.2992 21.0862 10.9792H19.1029C18.1254 10.9792 17.332 11.7725 17.332 12.75V16.2917C17.332 17.1417 17.9412 17.8217 18.7487 17.9917V27.625C18.7487 28.6025 19.542 29.3959 20.5195 29.3959H38.9362C39.9137 29.3959 40.707 28.6025 40.707 27.625V17.9917C41.5145 17.8217 42.1237 17.1417 42.1237 16.2917V12.75C42.1237 11.7725 41.3304 10.9792 40.3529 10.9792ZM39.9987 15.9375H30.7904V13.1042H39.9987V15.9375ZM35.3945 6.72919C36.372 6.72919 37.1654 7.52252 37.1654 8.50002C37.1654 9.47752 36.372 10.2709 35.3945 10.2709H30.9179C31.3995 8.24502 33.227 6.72919 35.3945 6.72919ZM24.0612 6.72919C26.2287 6.72919 28.0562 8.24502 28.5379 10.2709H24.0612C23.0837 10.2709 22.2904 9.47752 22.2904 8.50002C22.2904 7.52252 23.0837 6.72919 24.0612 6.72919ZM19.457 13.1042H28.6654V15.9375H19.457V13.1042ZM20.8737 18.0625H28.6654V27.2709H20.8737V18.0625ZM38.582 27.2709H30.7904V18.0625H38.582V27.2709Z" fill="#2B59FF"/>
<path d="M13.6364 16.4997C13.6364 17.2628 14.2469 17.8813 15 17.8813C15.7531 17.8813 16.3636 17.2628 16.3636 16.4997L13.6364 16.4997ZM16.3636 16.4859C16.3636 15.7229 15.7531 15.1043 15 15.1043C14.2469 15.1043 13.6364 15.7229 13.6364 16.4859L16.3636 16.4859ZM10.9636 12.7826C11.4704 12.2181 11.4296 11.3444 10.8725 10.831C10.3154 10.3174 9.453 10.3589 8.94614 10.9233L10.9636 12.7826ZM5.91859 8.13578C6.42532 7.57141 6.38455 6.69756 5.82736 6.18417C5.27032 5.67063 4.40782 5.71208 3.90109 6.27645L5.91859 8.13578ZM8.94614 22.0761C9.453 22.6406 10.3154 22.6819 10.8725 22.1685C11.4296 21.6551 11.4704 20.7813 10.9636 20.2168L8.94614 22.0761ZM3.90109 26.7229C4.40782 27.2874 5.27032 27.3287 5.82736 26.8153C6.38455 26.3019 6.42532 25.4281 5.91859 24.8636L3.90109 26.7229ZM16.3636 16.4997L16.3636 16.4859L13.6364 16.4859L13.6364 16.4997L16.3636 16.4997ZM9.54546 16.4997C9.54546 15.0674 10.0815 13.7652 10.9636 12.7826L8.94614 10.9233C7.62518 12.3946 6.81818 14.3533 6.81818 16.4997L9.54546 16.4997ZM2.72727 16.4997C2.72727 13.278 3.93477 10.3453 5.91859 8.13578L3.90109 6.27645C1.47845 8.97482 -6.3866e-07 12.564 -4.66625e-07 16.4997L2.72727 16.4997ZM10.9636 20.2168C10.0815 19.2343 9.54546 17.932 9.54546 16.4997L6.81818 16.4997C6.81818 18.6461 7.62518 20.6048 8.94614 22.0761L10.9636 20.2168ZM5.91859 24.8636C3.93477 22.654 2.72727 19.7213 2.72727 16.4997L-4.66625e-07 16.4997C-2.94589e-07 20.4355 1.47845 24.0246 3.90109 26.7229L5.91859 24.8636Z" fill="#2B59FF"/>
<path d="M45.8187 16.4997C45.8187 17.2628 45.2082 17.8813 44.4551 17.8813C43.7019 17.8813 43.0914 17.2628 43.0914 16.4997L45.8187 16.4997ZM43.0914 16.4859C43.0914 15.7229 43.7019 15.1043 44.4551 15.1043C45.2082 15.1043 45.8187 15.7229 45.8187 16.4859L43.0914 16.4859ZM48.4914 12.7826C47.9847 12.2181 48.0255 11.3444 48.5825 10.831C49.1397 10.3174 50.0021 10.3589 50.5089 10.9233L48.4914 12.7826ZM53.5365 8.13578C53.0298 7.57141 53.0705 6.69756 53.6277 6.18417C54.1848 5.67063 55.0473 5.71208 55.554 6.27645L53.5365 8.13578ZM50.5089 22.0761C50.0021 22.6406 49.1397 22.6819 48.5825 22.1685C48.0255 21.6551 47.9847 20.7813 48.4914 20.2168L50.5089 22.0761ZM55.554 26.7229C55.0473 27.2874 54.1848 27.3287 53.6277 26.8153C53.0705 26.3019 53.0298 25.4281 53.5365 24.8636L55.554 26.7229ZM43.0914 16.4997L43.0914 16.4859L45.8187 16.4859L45.8187 16.4997L43.0914 16.4997ZM49.9096 16.4997C49.9096 15.0674 49.3736 13.7652 48.4914 12.7826L50.5089 10.9233C51.8299 12.3946 52.6369 14.3533 52.6369 16.4997L49.9096 16.4997ZM56.7278 16.4997C56.7278 13.278 55.5203 10.3453 53.5365 8.13578L55.554 6.27645C57.9766 8.97482 59.4551 12.564 59.4551 16.4997L56.7278 16.4997ZM48.4914 20.2168C49.3736 19.2343 49.9096 17.932 49.9096 16.4997L52.6369 16.4997C52.6369 18.6461 51.8299 20.6048 50.5089 22.0761L48.4914 20.2168ZM53.5365 24.8636C55.5203 22.654 56.7278 19.7213 56.7278 16.4997L59.4551 16.4997C59.4551 20.4355 57.9766 24.0246 55.554 26.7229L53.5365 24.8636Z" fill="#2B59FF"/>
</svg>

<svg width="60" height="34" fill="none" xmlns="http://www.w3.org/2000/svg"><path d="M40.353 10.98H38.37c.566-.68.92-1.53.92-2.48a3.894 3.894 0 00-3.895-3.896c-2.38 0-4.477 1.261-5.667 3.131-1.19-1.87-3.287-3.13-5.667-3.13A3.894 3.894 0 0020.165 8.5c0 .95.355 1.8.921 2.48h-1.983a1.77 1.77 0 00-1.771 1.77v3.542c0 .85.61 1.53 1.417 1.7v9.633c0 .977.793 1.77 1.77 1.77h18.417a1.77 1.77 0 001.771-1.77v-9.633c.807-.17 1.417-.85 1.417-1.7V12.75c0-.977-.794-1.77-1.771-1.77zm-.354 4.957H30.79v-2.833H40v2.834zM35.394 6.73a1.772 1.772 0 010 3.542h-4.476a4.616 4.616 0 014.477-3.542zm-11.333 0c2.168 0 3.995 1.516 4.477 3.542H24.06a1.771 1.771 0 010-3.542zm-4.604 6.375h9.208v2.834h-9.208v-2.834zm1.417 4.959h7.791v9.208h-7.791v-9.209zm17.708 9.208H30.79v-9.209h7.792v9.209zM13.636 16.5c0 .763.61 1.381 1.364 1.381.753 0 1.364-.618 1.364-1.381h-2.728zm2.728-.014c0-.763-.61-1.382-1.364-1.382-.753 0-1.364.619-1.364 1.382h2.728zm-5.4-3.703a1.394 1.394 0 00-.091-1.952 1.351 1.351 0 00-1.927.092l2.018 1.86zM5.919 8.136a1.394 1.394 0 00-.092-1.952 1.351 1.351 0 00-1.926.092l2.018 1.86zm3.027 13.94c.507.565 1.37.606 1.927.093a1.394 1.394 0 00.09-1.952l-2.017 1.86zm-5.045 4.647a1.35 1.35 0 001.926.092 1.394 1.394 0 00.092-1.951L3.9 26.723zM16.364 16.5v-.014h-2.728v.014h2.728zm-6.819 0a5.54 5.54 0 011.419-3.717l-2.018-1.86A8.325 8.325 0 006.818 16.5h2.727zm-6.818 0c0-3.222 1.208-6.155 3.192-8.364L3.9 6.276A15.258 15.258 0 000 16.5h2.727zm8.237 3.717A5.542 5.542 0 019.545 16.5H6.818c0 2.146.807 4.105 2.128 5.576l2.018-1.86zm-5.045 4.647A12.475 12.475 0 012.727 16.5H0c0 3.936 1.478 7.525 3.901 10.223l2.018-1.86zm39.9-8.364c0 .763-.61 1.381-1.364 1.381a1.373 1.373 0 01-1.364-1.381h2.728zm-2.728-.014c0-.763.61-1.382 1.364-1.382.753 0 1.364.619 1.364 1.382H43.09zm5.4-3.703a1.394 1.394 0 01.092-1.952 1.351 1.351 0 011.926.092l-2.018 1.86zm5.045-4.647a1.394 1.394 0 01.092-1.952 1.351 1.351 0 011.926.092l-2.018 1.86zm-3.027 13.94a1.351 1.351 0 01-1.926.093 1.395 1.395 0 01-.092-1.952l2.018 1.86zm5.045 4.647a1.351 1.351 0 01-1.926.092 1.394 1.394 0 01-.092-1.951l2.018 1.859zM43.091 16.5v-.014h2.728v.014H43.09zm6.819 0a5.541 5.541 0 00-1.419-3.717l2.018-1.86a8.325 8.325 0 012.128 5.577H49.91zm6.818 0c0-3.222-1.208-6.155-3.192-8.364l2.018-1.86A15.259 15.259 0 0159.455 16.5h-2.727zm-8.237 3.717A5.541 5.541 0 0049.91 16.5h2.727a8.325 8.325 0 01-2.128 5.576l-2.018-1.86zm5.045 4.647a12.475 12.475 0 003.192-8.364h2.727c0 3.936-1.478 7.525-3.901 10.223l-2.018-1.86z" fill="#2B59FF"/></svg>
